X:118
T:Margot's Surprise
M:2/2
L:1/8
R:Reel
K:Bb
^F|"Gm"G2 GA B(d d)B|"Cm"ABA^F "Gm"G4|"Cm"A2 AB c(e e)c|"D"ded^c d4|
"Cm"g^fg_a gdef|^feec "D"d4|"Gm"G^FGA "Cm"BABc|1"D"dcBA "Gm"G3:|2"D"dcBA
"Gm"G4||:
"D"D^CDE D=CB,A,|"Gm"G,2G,2G4|"Cm"AG^FG A2 B2|"D"A2 ^c2 d4|
"Cm"de^fe d2 B2|^cBAG "D"A4|"Gm"G^FGA "Cm"BABc|1"D"dcBA "Gm"G4:|2"D"dcBA
"Gm"G3||
